!!!!SEGMENT: pl-gd--ee-1638--006-023_marenzio-luca--il-quinto-libro-de-madrigalia-a-cinque-voci-basciami-mille-volte.krn
!!!cenid: 15xx:905
!!!COM: Marenzio, Luca
!!!COM-rismID: pe30003955
!!!CDT: ~1553-1599/08/22
!!!CNT: Italian
!!!GTL: Il Quinto libro de madrigalia a cinque voci
!!!OTL: Basciami mille volte
!!!OMV: 023
!!!PDT: 1585
!!!AGN:
!!!SMS-siglum: PL-GD
!!!SMS-shelfmark: Ee 1638
!!!SMS-variant:
!!!SMS-altvar:
!!!SMS-shelfwork: 006-023 G
!!!NIFC-rismSourceID: 990039296
!!!NIFC-islandoraID: pl-gd:57883
!!!URL-pdf-islandora: https://repozytorium.nifc.pl/islandora/object/pl-gd%3A57883/datastream/PDF/view
!!!URL-scan: https://polish.musicsources.pl/pl/lokalizacje/galeria/klocki-introligatorskie/655 @EN{Scan on Polish Music Sources Website} @PL{Skany w portalu Dziedzictwo Muzyki Polskiej w otwartym dostępie}
!!!ONB-nifc:
!!!AIN: 1 alto 1 bass 1 soprn 1 tenor 1 vox
!!!key: g
**kern	**text	**kern	**text	**kern	**text	**kern	**text	**kern	**text
*part5	*part5	*part4	*part4	*part3	*part3	*part2	*part2	*part1	*part1
*staff5	*staff5	*staff4	*staff4	*staff3	*staff3	*staff2	*staff2	*staff1	*staff1
*I"QVINTO	*	*I"BASSO	*	*I"TENORE 	*	*I"ALTO	*	*I"CANTO	*
*I'V	*	*I'B	*	*I'T	*	*I'A	*	*I'S	*
*ICvox	*	*ICvox	*	*ICvox	*	*ICvox	*	*ICvox	*
*Ivox	*	*Ibass	*	*Itenor	*	*Ialto	*	*Isoprn	*
*clefC1	*	*clefF4	*	*clefC4	*	*clefC3	*	*clefC1	*
*k[b-]	*	*k[b-]	*	*k[b-]	*	*k[b-]	*	*k[b-]	*
*g:	*	*g:	*	*g:	*	*g:	*	*g:	*
*M3/1	*	*M3/1	*	*M3/1	*	*M3/1	*	*M3/1	*
*met(O3.)	*	*met(O.)	*	*met(O3.)	*	*met(O3.)	*	*met(O3.)	*
=1-	=1-	=1-	=1-	=1-	=1-	=1-	=1-	=1-	=1-
!	!	!	!	!	!	!	!	!LO:TX:t=P:problem:W taktach 3 i szczególnie 25 jest trochę zawirowań. Ogólnie bas jest jakby z innej bajki.	!
2.g/	BA-	1%3r	.	2.G/	BA	2.d\	BA	2.b-\	BA
4g/	-ſcia-	.	.	4G/	-ſcia-	4d\	-ſcia-	4b-\	-ſcia-
2g/	-mi	.	.	2G/	-mi	2d\	-mi	2b-\	-mi
*	*ij	*	*	*	*ij	*	*ij	*	*ij
2.a\	BA-	.	.	2.F/	Ba-	2.f\	Ba-	2.cc\	Ba-
4a\	-scia-	.	.	4F/	-scia-	4f\	-scia-	4cc\	-scia-
2a\	-mi	.	.	2F/	-mi	2f\	-mi	2cc\	-mi
*	*Xij	*	*	*	*Xij	*	*Xij	*	*Xij
=2-	=2-	=2-	=2-	=2-	=2-	=2-	=2-	=2-	=2-
2.b-\	mil-	1%3r	.	2.B-\	mil-	2.f\	mil-	2.dd\	mil-
4g/	-le	.	.	4c\	-le	4e\	-le	4cc\	-le
2a\	mil-	.	.	2A/	mil-	2e\	mil-	2cc\	mil-
4a\	-le	.	.	4F/	-le	4f\	-le	4dd\	-le
!LO:TX:t=P:problem:brak caudy	!	!	!	!LO:TX:t=P:problem:brak caudy	!	!LO:TX:t=P:problem:brak caudy	!	!LO:TX:t=P:problem:brak caudy	!
!LO:N:vis=4:xstem	!	!	!	!LO:N:vis=4:xstem	!	!LO:N:vis=4:xstem	!	!LO:N:vis=4:xstem	!
4g\	vol-	.	.	4G/	vol-	4d\	vol-	4b-\	vol-
1.f#X	-te	.	.	1.D	-te	1.d	-te	1.a	-te
=3-	=3-	=3-	=3-	=3-	=3-	=3-	=3-	=3-	=3-
.	.	1.r	.	.	.	.	.	.	.
!LO:TX:t=P:problem:przesunięte ze względu na basso	!	!	!	!LO:TX:t=P:problem:przesunięte ze względu na basso	!	!LO:TX:t=P:problem:przesunięte ze względu na basso	!	!LO:TX:t=P:problem:przesunięte ze względu na basso	!
1ryy	.	.	.	1ryy	.	1ryy	.	1ryy	.
2.a\	Ba-	2.D\	BA-	2.A/	Ba-	2.d\	Ba-	2.f#X/	Ba-
4a\	-ſcia-	4D\	-ſcia-	4A/	-ſcia-	4d\	-ſcia-	4f#/	-ſcia-
!LO:SIC:v:t=custos cc	!	!	!	!LO:SIC:v:t=custos A	!	!LO:SIC:v:t=custos e	!	!LO:SIC:v:t=custos a	!
2a\	-mi	2D\	-mi	2A/	-mi	2d\	-mi	2f#/	-mi
!LO:LB:g=original	!	!	!	!LO:LB:g=original	!	!LO:LB:g=original	!	!LO:LB:g=original	!
=4-	=4-	=4-	=4-	=4-	=4-	=4-	=4-	=4-	=4-
*	*	*	*ij	*	*	*	*	*	*
2.cc\	Ba-	2.AA/	Ba-	2.A/	Ba-	2.e\	Ba-	2.a\	Ba-
4cc\	-ſcia-	4AA/	-scia-	4A/	-ſcia-	4e\	-ſcia-	4a\	-ſcia-
2cc\	-mi	2AA/	-mi	2A/	-mi	2e\	-mi	2a\	-mi
*	*	*	*Xij	*	*	*	*	*	*
!	!	!	!	!	!	!	!	!LO:N:acc=#	!
2.dd\	mil-	2.GG/	mil-	2.d\	mil-	2.g\	mil-	2.bn\	mil-
4dd\	-le	4GG/	-le	4G/	-le	4g\	-le	4b\	-le
2cc\	mil-	2C/	mil-	2G/	mil-	2e\	mil-	2cc\	mil-
=5-	=5-	=5-	=5-	=5-	=5-	=5-	=5-	=5-	=5-
2b-\	-le	4GG/	-le	2G/	-le	1g	-le	2dd\	-le
.	.	4D\	vol-	.	.	.	.	.	.
1a	vol	1GG	-te	1A	vol-	.	.	1dd	vol-
.	.	.	.	.	.	2f#X\	vol-	.	.
2ryy	.	1.ryy	.	2ryy	.	2ryy	.	2ryy	.
1ryy	.	.	.	1ryy	.	1ryy	.	1ryy	.
=6-	=6-	=6-	=6-	=6-	=6-	=6-	=6-	=6-	=6-
*M2/1	*	*M2/1	*	*M2/1	*	*M2/1	*	*M2/1	*
*met(C)	*	*met(C)	*	*met(C)	*	*met(C)	*	*met(C)	*
2b-\	te	00r	.	2G/	-te	2g\	-te	2dd\	-te
4r	.	.	.	4r	.	4r	.	4r	.
4b-\	Con	.	.	4G/	Con	4d\	Con	4g/	Con
4.b-\	quel-	.	.	4.G/	quel-	4.d\	quel-	4.g/	quel-
8b-\	-le	.	.	8G/	-le	8d\	-le	8g/	-le
4cc\	dol-	.	.	4F/	dol-	4fny\	dol-	4a\	dol-
4cc\	-ci	.	.	4F/	-ci	4f\	-ci	4a\	-ci
=7-	=7-	=7-	=7-	=7-	=7-	=7-	=7-	=7-	=7-
2dd\	tue	.	.	2B-\	tue	2f\	tue	2b-y\	tue
4b-\	lab-	.	.	4B-\	la-	4f\	la-	4dd\	la-
2b-\	-ra	.	.	2E-X/	-bra	2g\	-bra	2ee-X\	-bra
!	!	!	!	!LO:SIC:v:t=custos f	!	!LO:SIC:v:t=custos f	!	!LO:SIC:v:t=custos cc	!
4b-\	ro-	.	.	4G/	ro-	4d\	ro-	4b-\	ro-
!	!	!	!	!LO:LB:g=original	!	!	!	!LO:LB:g=original	!
2a\	-ſa-	.	.	2F/	-ſa-	2f\	-ſa-	2cc\	-ſa-
=8-	=8-	=8-	=8-	=8-	=8-	=8-	=8-	=8-	=8-
!LO:SIC:v:t=custos g	!	!	!	!	!	!	!	!	!
2a\	-te	00r	.	2F/	-te	2f\	-te	2cc\	-te
!LO:LB:g=original	!	!	!	!	!	!	!	!	!
4g/	Pie-	.	.	4c\	pie-	4e\	pie-	2r	.
8g/	-ne	.	.	8B-\	-ne	8d\	-ne	.	.
8a\	di	.	.	8A\	di	8c\	di	.	.
4b-\	va-	.	.	4G/	va-	4d\	va-	4g/	pie-
4cc\	-ghe	.	.	4A/	-ghe	4a\	-ghe	8fny/	-ne
.	.	.	.	.	.	.	.	8e/	di
2dd\	vo-	.	.	2B-\	vo-	2f\	vo-	4d/	va-
.	.	.	.	.	.	.	.	4e/	-ghe
=9-	=9-	=9-	=9-	=9-	=9-	=9-	=9-	=9-	=9-
!	!	!LO:SIC:v:t=custos D	!	!	!	!	!	!	!
4cc\	-glie in-	.	.	4A\	-glie in-	4a\	-glie	2f/	vo-
2dd\	-na-	.	.	2B-\	-na-	2f\	in-	.	.
.	.	.	.	.	.	.	.	4d/	-glie in-
4b-\	-mo-	.	.	4G/	-mo-	8e\	-na-	2g/	-na-
.	.	.	.	.	.	8d\	.	.	.
!LO:TX:t=P:problem: odwrócona litera "r"	!	!	!	!	!	!	!	!	!
1a	-ra-	.	.	1A	-ra-	4c#X/	.	.	.
.	.	.	.	.	.	2d\	-mo-	4f/	-mo-
.	.	.	.	.	.	.	.	2e/	-ra-
.	.	.	.	.	.	4c#X/	-ra-	.	.
!	!	!LO:LB:g=original	!	!	!	!	!	!	!
=10-	=10-	=10-	=10-	=10-	=10-	=10-	=10-	=10-	=10-
1a	-te	1ryy	.	1D	-te	1d	-te	1f#X	-te
2r	.	2.D/	E	2.A/	E	2r	.	2r	.
2.f#X/	E	.	.	.	.	2.d\	E	2.a\	E
.	.	4D/	ſe-	4A/	ſe	.	.	.	.
=11-	=11-	=11-	=11-	=11-	=11-	=11-	=11-	=11-	=11-
.	.	1.D	-l'a	1.A	l'al-	.	.	.	.
4f#yX/	ſe	.	.	.	.	4d\	ſe	4a\	ſe
1f#	l'al-	.	.	.	.	1d	l'a-	1a	l'a-
!	!	!	!	!	!	!LO:SIC:v:t=custos e	!	!LO:N:acc=#	!
2g/	-ma	2GG/	ma	1G/	-ma	2d\	-ma	2bn\	-ma
=12-	=12-	=12-	=12-	=12-	=12-	=12-	=12-	=12-	=12-
1g	mia	1C	mia	.	.	1e-X	mia	1cc	mia
.	.	.	.	2C/	mia	.	.	.	.
!	!	!	!	!LO:SIC:v:t=custos f	!	!	!	!LO:SIC:v:t=custos f	!
2b-\	pre-	2BB-/	pre-	2F/	pre-	2d\	pre-	2fny/	pre-
!	!	!	!	!LO:LB:g=original	!	!	!	!LO:LB:g=original	!
4b-\	-ſa	4BB-/	-ſa	2F/	-ſa	4d\	-ſa	4f/	-ſa
4a\	D'in-	4F\	D'in	.	.	4A/	Da'in-	4c/	D'in
=13-	=13-	=13-	=13-	=13-	=13-	=13-	=13-	=13-	=13-
4.g/	-ſo-	4.E-X\	fo-	1r	.	4.B-/	-ſo-	4.e-X/	-ſo-
!LO:SIC:v:t=custos g	!	!	!	!	!	!	!	!	!
8g/	-li-	8E-\	-li-	.	.	8B-/	-li-	8e-/	-li-
!LO:LB:g=original	!	!	!	!	!	!	!	!	!
4g/	-ta	4E-\	-ta	.	.	4B-/	-ta	4e-X/	-ta
4g/	dol-	4C/	dol-	.	.	4cny/	dol-	4e-/	dol-
2f#X/	-cez-	2D/	-cez-	1r	.	2A/	-cez-	2d/	-cez-
2f#/	-za	2D/	-za	.	.	2A/	-za	2d/	-za
=14-	=14-	=14-	=14-	=14-	=14-	=14-	=14-	=14-	=14-
2r	.	2.BB-/	ver-	2.B-\	ver-	2d\	ver-	2r	.
2b-\	ver-	.	.	.	.	2d\	-ra	2.dd\	ver-
.	.	4C/	-ra	4G/	-ra	.	.	.	.
4a\	-ra	1D	me-	4F#X/	me-	1d	me-	.	.
2g/	me-	.	.	4G/	.	.	.	4b-y\	-ra
.	.	.	.	2A/	.	.	.	2a\	me-
4f#X/	.	.	.	.	.	.	.	.	.
=15-	=15-	=15-	=15-	=15-	=15-	=15-	=15-	=15-	=15-
2g/	-no	1GG	-no	1B-	-no	1d	-no	1g	-no
2r	.	.	.	.	.	.	.	.	.
4b-\	ſtrin-	4G\	ſtrin-	1r	.	4d\	ſtrin-	1r	.
8b-\	-ge-	8G\	-ge-	.	.	8d\	-ge-	.	.
!	!	!LO:SIC:v:t=custos A	!	!	!	!	!	!	!
8b-\	-mi	8G\	-mi	.	.	8g\	-mi	.	.
*	*ij	*	*	*	*	*	*	*	*
!	!	!LO:LB:g=original	!	!	!	!	!	!	!
4cc\	ſtrin-	4A\	ſtrin-	.	.	4eny\	ſtrin-	.	.
8cc\	-ge-	8A\	-ge-	.	.	8e\	-ge-	.	.
!	!	!	!	!	!	!LO:SIC:v:t=custos d	!	!	!
8cc\	-mi	8A\	-mi	.	.	8e\	-mi	.	.
*	*Xij	*	*	*	*	*	*	*	*
=16-	=16-	=16-	=16-	=16-	=16-	=16-	=16-	=16-	=16-
4dd\	toſ-	4B-\	toſ-	4G/	ſtrin-	2d\	toſ-	4b-\	ſtrin-
4dd\	-to	4B-\	-to	8G/	-ge-	.	.	8b-\	-ge-
.	.	.	.	8G/	-mi	.	.	8b-\	-mi
*	*	*	*	*	*ij	*	*	*	*ij
2r	.	2r	.	4A/	ſtrin-	2a\	-to	4cc\	ſtrin-
.	.	.	.	8A/	-ge-	.	.	8cc\	-ge-
.	.	.	.	8A/	-mi	.	.	8cc\	-mi
*	*	*	*	*	*Xij	*	*	*	*Xij
4b-\	ſtrin-	4G\	ſtrin-	4B-\	toſ-	4d\	ſtrin-	4dd\	toſ-
8b-\	-ge-	8G\	-ge-	4B-\	-to	8d\	-ge-	4dd\	-to
!LO:SIC:v:t=custos cc	!	!	!	!	!	!	!	!	!
8b-\	-mi	8G\	-mi	.	.	8g\	-mi	.	.
!LO:LB:g=original	!	!	!	!	!	!	!	!LO:SIC:v:t=custos b	!
*	*ij	*	*	*	*	*	*	*	*
4cc\	ſtrin-	4A\	ſtrin-	2r	.	4e\	ſtrin-	2r	.
8cc\	-ge-	8A\	-ge-	.	.	8e\	-ge-	.	.
8cc\	-mi	8A\	-mi	.	.	8e\	-mi	.	.
*	*Xij	*	*	*	*	*	*	*	*
!	!	!	!	!	!	!	!	!LO:LB:g=original	!
=17-	=17-	=17-	=17-	=17-	=17-	=17-	=17-	=17-	=17-
4dd\	toſ-	4B-\	toſ-	4G/	ſtrin-	2g\	toſ-	4b-\	ſtrin-
4dd\	-to	4B-\	-to	8G/	-ge-	.	.	8b-\	-ge-
!	!	!	!	!LO:SIC:v:t=custos A	!	!	!	!	!
.	.	.	.	8G/	-mi	.	.	8b-\	-mi
*	*	*	*	*	*ij	*	*	*	*ij
!	!	!	!	!LO:LB:g=original	!	!	!	!	!
2r	.	2r	.	4A/	ſtrin-	2e\	-to	4cc\	ſtrin-
.	.	.	.	8A/	-ge-	.	.	8cc\	-ge-
.	.	.	.	8A/	-mi	.	.	8cc\	-mi
4b-\	ſtrin-	4G\	ſtrin-	4B-\	ſtrin-	4d\	ſtrin-	4g/	ſtrin-
8b-\	-ge-	8G\	-ge-	8B-\	-ge-	8d\	-ge-	8g/	-ge-
8b-\	-mi	8G\	-mi	8B-\	-mi	8d\	-mi	8g/	-mi
*	*ij	*	*	*	*	*	*	*	*
4cc\	ſtrin-	4F\	ſtrin-	4A/	ſtrin-	4f\	ſtrin-	4a\	ſtrin-
8cc\	-ge-	8F\	-ge-	8A/	-ge-	8f\	-ge-	8a\	-ge-
!	!	!LO:SIC:v:t=custos BB	!	!	!	!	!	!	!
8cc\	-mi	8F\	-mi	8A/	-mi	8f\	-mi	8a\	-mi
*	*Xij	*	*	*	*Xij	*	*	*	*Xij
!	!	!LO:LB:g=original	!	!	!	!	!	!	!
=18-	=18-	=18-	=18-	=18-	=18-	=18-	=18-	=18-	=18-
2dd\	toſ-	2BB-/	toſ-	2Fny/	toſ-	2f\	toſ-	2b-\	toſ-
2dd\	-t'al	2BB-/	-t'al	2F/	-to al	2f\	-to	2b-\	-to
1b-	de-	1.E-X	de'	1G	de-	1r	.	2r	.
.	.	.	.	.	.	.	.	2g/	al
=19-	=19-	=19-	=19-	=19-	=19-	=19-	=19-	=19-	=19-
1g	-li-	.	.	1G	-li-	1B-	al	1.ee-X	de-
.	.	2D/	i-	.	.	.	.	.	.
!	!	!	!	!	!	!LO:SIC:v:t=custos d	!	!	!
1g	-ca-	2C/	-ca-	1G	-ca-	2c/	de-	.	.
!	!	!LO:N:acc=#	!	!	!	!	!	!	!
.	.	2BBn/	-to	.	.	2d\	-li-	2dd\	-li-
=20-	=20-	=20-	=20-	=20-	=20-	=20-	=20-	=20-	=20-
2g/	-to	1C	ſe-	1G	-to	2e-X\	-ca-	2cc\	-ca-
2.cc\	ſe-	.	.	.	.	2e-\	-to	2g/	-to
!	!	!	!	!	!	!	!	!LO:SIC:v:t=custos g	!
.	.	1GG	-no	1G	ſe-	1d	ſe-	1g	ſe-
!LO:N:acc=#	!	!	!	!	!	!	!	!	!
8bn\	.	.	.	.	.	.	.	.	.
8a\	.	.	.	.	.	.	.	.	.
!LO:N:acc=#	!	!	!	!	!	!	!	!	!
2bn\	.	.	.	.	.	.	.	.	.
!	!	!	!	!	!	!	!	!LO:LB:g=original	!
=21-	=21-	=21-	=21-	=21-	=21-	=21-	=21-	=21-	=21-
!LO:SIC:v:t=custos g	!	!	!	!	!	!	!	!	!
2cc\	-no	2r	.	1C	-no	1c	-no	1g	-no
!LO:LB:g=original	!	!	!	!	!	!	!	!	!
4g/	Ma-	4C/	Ma	.	.	.	.	.	.
4g/	-s'a-	4C/	s'a-	.	.	.	.	.	.
1a	-uiẽ	1F	-uien	1r	.	4c/	Ma	2r	.
.	.	.	.	.	.	4c/	s'au-	.	.
.	.	.	.	.	.	1f\	-ien	4cc\	Ma-
.	.	.	.	.	.	.	.	4cc\	-s'a-
=22-	=22-	=22-	=22-	=22-	=22-	=22-	=22-	=22-	=22-
1.a	poi	1.D	poich	4A/	Ma-	.	.	1dd	-uiẽ
.	.	.	.	4A/	-s'a-	.	.	.	.
.	.	.	.	2d\	-uien	1f	poi	.	.
.	.	.	.	0r	.	.	.	2d/	poi
2g/	ch'io	2G\	io	.	.	2B-/	ch'io	2d/	ch'io
=23-	=23-	=23-	=23-	=23-	=23-	=23-	=23-	=23-	=23-
0g	mo-	0E-X	mo	.	.	0B-	mo-	0e-X	mo-
.	.	.	.	1r	.	.	.	.	.
=24-	=24-	=24-	=24-	=24-	=24-	=24-	=24-	=24-	=24-
1fny	-ra	1BB-y	ra	2r	.	1B-	-ra	1d	-ra
!	!	!	!	!LO:SIC:v:t=custos F	!	!	!	!	!
.	.	.	.	1B-	Dol-	.	.	.	.
2b-y\	Dol-	00r	.	.	.	2f\	Dol-	2dd\	Dol-
!	!	!	!	!LO:LB:g=original	!	!	!	!	!
4.a\	-ce	.	.	4.F/	-ce	4.f\	-ce	4.cc\	-ce
8b-\	la	.	.	8D/	la	8f\	la	8dd\	la
=25-	=25-	=25-	=25-	=25-	=25-	=25-	=25-	=25-	=25-
4a\	for-	.	.	4F/	for-	4f\	for-	4cc\	for-
4g/	-te	.	.	4G/	-te	4d\	-te	4b-\	-te
!	!	!	!	!	!	!LO:SIC:v:t=custos d	!	!	!
2f#X/	fia	.	.	2D/	fia	2d\	fia	2a\	fia
!	!	!	!	!LO:TX:t=P:problem: grupa oznaczona jako triola w źródle (?)	!	!LO:TX:t=P:problem: grupa oznaczona jako triola w źródle (?)	!	!	!
!LO:TX:t=P:problem: grupa oznaczona jako triola w źródle (?)	!	!	!	!	!	!	!	!LO:TX:t=P:problem: grupa oznaczona jako triola w źródle (?)	!
4.g/	Do'-	.	.	4.G/	dol-	4.d\	d	4.b-\	dol-
4ryy	.	.	.	4ryy	.	4ryy	.	4ryy	.
8g/	-ce	.	.	8G/	-ce	8d\	ce-	8b-\	-ce
4d/	la	.	.	4B-\	la	4d\	-la	4g/	la
=26-	=26-	=26-	=26-	=26-	=26-	=26-	=26-	=26-	=26-
2e/	ſtel-	.	.	2A/	ſtel-	2c#X/	ſtel-	2a\	ſtel-
!	!	!	!	!	!	!	!	!LO:SIC:v:t=custos a	!
2e/	-la	.	.	4A/	-la	2c#/	-la	2a\	-la
.	.	.	.	2A/	Che	.	.	.	.
!	!	!	!	!	!	!	!	!LO:LB:g=original	!
2f#X/	Che	2D/	Che	.	.	2d\	Che	2a\	Che
.	.	.	.	2d\	mor-	.	.	.	.
!LO:SIC:v:t=custos g	!	!	!	!	!	!	!	!LO:N:acc=#	!
2g/	mor-	2G\	mor-	.	.	2d\	mor-	2bn\	mor-
.	.	.	.	2G/	-te	.	.	.	.
!LO:LB:g=original	!	!	!	!	!	!	!	!	!
=27-	=27-	=27-	=27-	=27-	=27-	=27-	=27-	=27-	=27-
!	!	!LO:SIC:v:t=custos F	!	!	!	!	!	!	!
2g/	-te	2C/	-te	.	.	2eny\	-te	2cc\	-te
.	.	.	.	4.c\	mi	.	.	.	.
!	!	!LO:LB:g=original	!	!	!	!	!	!	!
4.a\	mi	4.F\	mi	.	.	4.f\	mi	4.cc\	mi
.	.	.	.	8c\	da-	.	.	.	.
.	.	.	.	4F/	-rà	.	.	.	.
8a\	da-	8F\	da-	.	.	8f\	da-	8cc\	da-
1b-	-rà	1BB-	-rà	2r	.	1f	-rà	1dd	-rà
.	.	.	.	1B-\	ſi	.	.	.	.
=28-	=28-	=28-	=28-	=28-	=28-	=28-	=28-	=28-	=28-
1g	ſi	1E-X	ſi	.	.	1e-X	ſi	1b-y	fi
.	.	.	.	1G	dol-	.	.	.	.
2g/	dol-	1C	dol-	.	.	1e-	dol-	1cc	dol-
!	!	!	!	!LO:SIC:v:t=custos B	!	!	!	!	!
2g/	-ce e	.	.	1G/	-ce e	.	.	.	.
!	!	!	!	!LO:LB:g=original	!	!	!	!	!
=29-	=29-	=29-	=29-	=29-	=29-	=29-	=29-	=29-	=29-
2.b-\	bel-	1GG	-ce e	.	.	0d	-ce e	2dd\	-ce e
.	.	.	.	2.B-\	bel-	.	.	2.b-\	bel-
4cc\	.	.	.	.	.	.	.	.	.
2.dd\	.	2.BB-/	bel-	.	.	.	.	.	.
.	.	.	.	4c\	.	.	.	4a\	.
.	.	.	.	2.d\	.	.	.	2.g/	.
8cc\	.	4C/	.	.	.	.	.	.	.
8b-\	.	.	.	.	.	.	.	.	.
=30-	=30-	=30-	=30-	=30-	=30-	=30-	=30-	=30-	=30-
1a	.	1D	.	.	.	1d	bel-	.	.
.	.	.	.	8c\	.	.	.	8f/	.
.	.	.	.	8B-\	.	.	.	8eny/	.
.	.	.	.	2A\	.	.	.	2f#X/	.
!LO:N:acc=#	!	!	!	!	!	!	!	!	!
00bn	-la.	00GG	-la.	00G	-la.	00d	-la.	00g/	-la.
==	==	==	==	==	==	==	==	==	==
*-	*-	*-	*-	*-	*-	*-	*-	*-	*-
!!!system-decoration: [(s1,s2,s3,s4,s5)]
!!!ENC: Andrzej Gręziak
!!!END: 2022-06-10
!!!ENC: Natalia Wrzos
!!!END: 2022-07-21
